X:67
C:Page 34
T:Hopkinson’s Favourite Dance. MBe.67
S:Matthew Betham MS, Towcett Cumbria, 1815
O:England;Cumbria;Towcett
Z:VMP – Hugh Taylor, 2012
M:6/8
L:1/8
Q:3/8=120
R:.Jig
N:Time signature was written as 2/4 but I’ve changed it to 6/8.
N:NB1-This bar is as written
W:No key sig in MS, Eminor assumed
W:F major is at least as likely (ed.CGP)
K:Em
“No key sig in MS”A|:”_repeat mark added”dfd f2 d|\
A2 F F2 A|dfd f2 d|”^sic NB1″g z2 e f2|
dfd f2 d|A2 F FAd|f2 a agf|gfg e2 f:|
|:d2 a agf|gab a2 f|d2 a agf|g2 e e2 f|
d2 a agf|gab a2 f|bag agf|gfg e2 f:|

